X: 1
T: Homage A Edmond Parizeau
M: 4/4
L: 1/8
R: reel
K: Amaj
ABcd[|eAAe AAeA|AAeA (3efe ed|ceAB cAeA|ceAc dedc|
B4 BABc|(3BcB Ac efed|c2B2 ABcA|E4 ABcd|
eAAe AAeA|AAeA (3efe ed|ceAB cAeA|ceAc dedc|
B4 BABc|e2c2B2A2|Afed cdBc|A2c2 (3BcB A2|]
[|a4 f4|d3 A d2 fe|e4 efec|A2c2 (3BcB A2|B4 BABc|
e2d2c2B2|cBAc ecef|e2c2 (3BcB A2|
a4 f4|d3 A d2 fe|e4 efec|A2c2 (3BcB A2|
B4 BABc|e2d2c2B2|Afed cdBc|A4|]
